X:1
T:Kyrie
T:Kyrie
T:dalla  Missa "Regina Coeli"
C:dalla  Missa "Regina Coeli"
%%score [ 1 2 3 4 ]
L:1/8
Q:1/4=120
M:4/4
K:G
V:1 treble-8 nm="Tenor 1"
V:2 treble-8 nm="Tenor 2"
V:3 bass nm="Baritone" snm="."
V:4 bass nm="Bass"
V:1
 z8 | z8 | z8 | z4 d4 | e4 (d4 | e4 f4) | z2 g4 f2 | (d3 c d2) (e2- | edcB AG G2- | %9
w: |||Ky-|ri- e|_ _|Ky- ri-|e _ _ e-||
 G2) F2 G2 (d2- | d2 e4) c2 | (d3 c B2) (AG) | A4 G2 g2- | g2 f2 e4- | e2 d2 (cBAG | A2 B3 A d2- | %16
w: * lei- son Ky-|* * ri-|e _ _ e- *|lei- son Ky-|* ri- e|_ e- lei- * * *||
 d2 ^c2 d4) | d8 || z8 | z8 | z8 | z8 | G4 d4- | d4 e4 | (d4 c2 B2 | c4) B4- | B8 | z2 (e4 d2) | %28
w: |son|||||Chri- ste|_ e-|lei- * *|* son|_|Chri- *|
 (e2 f2 g4) | z2 (e3 c d2) | e2 (dc) B4 | z4 z2 c2- | c2 (A4 d2- | dcBA G2) c2 | (d2 cdef g2 | %35
w: ste _ _|e- * *|le- i- * son|Chri-|* ste _|_ _ _ _ _ e-|le- * * * * *|
 e2 d4) ^c2 | d8 || d6 G2 | A4 (B2 GA | Bc d4) ^c2 | d2 g2 f2 g2 | (edef g3 f | d2 e2) d4 | %43
w: * * i-|son|Ky- ri-|e\_e le- * *|* * * i-|son Ky- ri- e|e- * * * * *|* * lei-|
 B2 e4 e2 | d4 B2 (e2- | e2 d2 c4) | B8 | z2 G3 ABc | d6 ^c2 | d2 (e3 d d2- | d2) ^c2 d4 | %51
w: son Ky- ri-|e e- lei-||son|Ky- * * *|* ri-|e\_e le- * *|* i- son|
 z2 d4 c2 | B4 A4 | (GABc de d2- | d2 ^c2 d4) | !fermata!d8 |] %56
w: Ky- ri-|e e-|lei- * * * * * *||son|
V:2
 z8 | z8 | G4 A4 | G4 A2 (B2- | B2 c2 A2 d2- | d2 ^c2) d4- | d4 z2 (d2- | dc B3 AGF | G3 FED E2 | %9
w: ||Ky- ri-|e e- le-||* i- son|_ Ky-|||
 E2) C2 (D3 E | F2) G2 (AG G2- | G2 F2 G2 E2 | D4) G4 | z4 c4 | B4 (A4- | A2 GF G2) B2 | %16
w: * ri- e _|_ e- lei- * *||* son|Ky-|ri- e|_ _ _ _ e-|
 (A2 G2 A4) | B8 || G4 d4- | d4 e4 | (d3 cBA B2- | B2 AG A2 B2- | BA G4) FE | F2 G4 E2 | %24
w: lei- * *|son|Chri- ste|_ e-|le- * * * *||* * * i- *|son Chri- ste|
 (F3 G A2) B2- | B2 A2 B2 d2- | d2 B2 d2 (e2- | edcB A2 D2 | G2 A2 BcdB | c6) B2 | A4 z2 G2- | %31
w: e- * * le-|* i- son Chri-|* ste e- le-|||* i-|son Chri-|
 G2 E2 G2 (A2- | AGFE) D4 | z2 G4 E2 | G2 (A3 G G2- | G2 F2 G4) | A8 || z8 | z4 d4- | d2 G2 A4 | %40
w: * ste e- le-|* * * i- son|Chri- ste|e- lei- * *||son||Ky-|* ri- e\_e|
 (B2 GABc d2- | d2 ^c2 d3 =c | BA G4) F2 | G2 c2 B2 c2 | A4 G4- | G4 A4 | D2 (G3 ABc | d3 cBA G2 | %48
w: le- * * * * *||* * * i-|son e- lei- *|* son|* Ky-|ri- e _ _ _|_ _ _ _ _|
 G2 FE F2) E2 | (F2 G3 F D2) | E2 A2 G2 F2 | E2 D2 A4 | z2 d3 c (AB) | c2 (B3 A A2 | AG G4) F2 | %55
w: * * * * e-|lei- * * *|son Ky- ri- e\_e|le- i- son|Ky- ri- e _|_ e- * *|* * * lei-|
 !fermata!G8 |] %56
w: son|
V:3
 G,4 A,4 | G,4 A,2 (B,2- | B,A, G,4) F,2 | G,4 z4 | z8 | G,4 A,4 | (G,4 A,4 | B,4) z4 | C8- | %9
w: Ky- ri-|e e- le-|* * * i-|son||Ky- ri-|e _|_|Ky-|
 C4 B,4 | A,2 (C3 B, G,2) | A,4 G,4 | z2 D4 C2 | B,2 (A,3 G,E,F, | G,2 F,2) E,2 F,2- | %15
w: * ri-|e e- * *|lei- son|Ky- ri-|e\_e le- * * *|* * i- son|
 F,2 D,2 (D,3 E, | F,2 G,4 F,2) | G,8 || z4 D,4 | (G,6 F,E, | F,2) G,2 (D,2 G,2 | G,2 F,E, F,4) | %22
w: _ e- lei- *||son|Chri-|ste _ _|_ e- lei- *||
 G,2 (B,4 A,G, | A,2 B,4 A,2) | B,4 z2 G,2 | E,2 F,2 G,4- | G,4 z4 | z2 C4 A,2 | C2 (D3 CB,A, | %29
w: son Chri- * *||ste e|le- i- son|_|Chri- ste|e- le- * * *|
 G,2 A,3 G, G,2- | G,2) F,2 (G,2 DC | B,A,G,F, E,4) | z2 A,2 F,2 (B,2- | B,A,G,F, E,F,G,A, | %34
w: |* i- son _ _|_ _ _ _ _|Chri- ste e-||
 B,G, C4 B,2) | C2 (B,4 A,G, | F,8) || z8 | z8 | z8 | D6 G,2 | A,4 (B,3 A, | B,2) C2 A,4 | %43
w: |lei- son _ _|_||||Ky- ri-|e\_e le- *|* i- son|
 z2 G,4 C,2 | D,4 (E,2 C,D, | E,F, G,4) F,2 | G,4 z2 (G,2- | G,A,B,C D3 C | B,4) (A,3 G, | %49
w: Ky- ri-|e\_e le- * *|* * * i-|son Ky-||* ri- *|
 A,B, C3 B, G,2) | A,4 z2 (A,2- | A,2 G,2 F,2 E,2- | E,D, G,4 F,2 | G,2) E,2 D,4 | G,4 A,4 | %55
w: |e Ky-|||* ri- e|e- lei-|
 !fermata!B,8 |] %56
w: son|
V:4
 z8 | z4 D,4 | E,4 D,4 | E,4 F,2 (G,2- | G,2 A,2 F,2 G,2 | E,4 D,3 C, | B,,2 A,,2 D,4) | %7
w: |Ky-|ri- e|e- le- i-||||
 G,,2 (G,3 F,E,D, | C,B,, C,3 B,,A,,)G,, | (A,,4 G,,A,,B,,C,) | D,2 (C,3 D, E,2) | D,4 G,,2 G,2- | %12
w: son Ky- * * *|* * * * * ri-|e _ _ _ _|_ e- * *|lei- son Ky-|
 G,2 F,2 (E,4 | D,3 C, A,,B,,C,D, | E,2) B,,2 C,2 (D,2- | D,C,B,,A,, G,,4) | (D,2 E,2) D,4 | %17
w: * ri- e|_ _ _ _ _ _|* Ky- ri- e|_ _ _ _ _|e- * lei-|
 G,,8 || z8 | z8 | z4 G,,4 | D,8 | E,4 (D,4- | D,2 B,,2 C,4) | B,,4 z4 | z8 | z2 G,4 E,2 | %27
w: son|||Chri-|ste|e- lei-||son||Chri- ste|
 G,2 (A,3 G, F,2 | E,2 D,2 G,3 F, | E,D,C,B,, A,,2 B,,2 | C,2 D,2) G,,4 | z2 C,4 A,,2 | %32
w: e- le- * *|||* i- son|Chri- ste|
 C,2 (D,3 C,B,,A,,) | G,,4 C,4 | B,,2 (A,,B,,C,D, E,2) | (C,2 D,2) E,4 | D,8 || z8 | z8 | z8 | z8 | %41
w: e- le- * * i-|son Chri-|ste _ _ _ _ _|e- * lei-|son|||||
 z4 G,4- | G,2 C,2 D,4 | (E,2 C,D,E,F, G,2- | G,2 F,2 G,F,E,D, | C,2 B,,2 A,,4) | G,,8- | %47
w: Ky|ri- * e\_e-|lei- * * * * *|||son,|
 G,,4 z2 (G,,2- | G,,A,,B,,C,) D,2 A,,2 | D,2 (C,3 D,) B,,2 | A,,4 z2 (D,2 | C,2) B,,2 A,,4 | %52
w: _ Ky-|* * * * * ri-|e\_e le- * i-|son Ky-|* ri- e|
 G,,4 (D,4 | E,2 G,4 F,2 | E,4 D,4) | !fermata!G,,8 |] %56
w: e- lei-|||son|

